src/img/contacts/email.svg

<svg width="40" height="41" viewBox="0 0 40 41" fill="none" xmlns="http://www.w3.org/2000/svg">
<path d="M28.0001 18.4698V24.9834C28.0002 25.6476 27.7461 26.2865 27.29 26.7692C26.8339 27.252 26.2104 27.5418 25.5473 27.5794L25.4001 27.5834H14.6001C13.936 27.5835 13.2971 27.3294 12.8143 26.8733C12.3316 26.4172 12.0417 25.7937 12.0041 25.1306L12.0001 24.9834V18.4698L19.7217 22.5146C19.8076 22.5596 19.9032 22.5831 20.0001 22.5831C20.0971 22.5831 20.1926 22.5596 20.2785 22.5146L28.0001 18.4698ZM14.6001 14.7834H25.4001C26.0446 14.7834 26.6661 15.0226 27.1442 15.4549C27.6222 15.8871 27.9227 16.4814 27.9873 17.1226L20.0001 21.3066L12.0129 17.1226C12.0749 16.5069 12.3546 15.9335 12.8015 15.5054C13.2485 15.0774 13.8335 14.8228 14.4513 14.7874L14.6001 14.7834H25.4001H14.6001Z" fill="#9CD6E1"/>
<circle cx="20.0001" cy="20.4517" r="19.5" stroke="#9CD6E1"/>
</svg>

<svg width="40" height="41" fill="none" xmlns="http://www.w3.org/2000/svg"><path d="M28 18.47v6.513a2.6 2.6 0 0 1-2.453 2.596l-.147.004H14.6a2.6 2.6 0 0 1-2.596-2.452L12 24.983V18.47l7.722 4.045a.6.6 0 0 0 .556 0L28 18.47Zm-13.4-3.687h10.8a2.6 2.6 0 0 1 2.587 2.34L20 21.307l-7.987-4.184a2.6 2.6 0 0 1 2.438-2.336l.15-.004h10.8-10.8Z" fill="#9CD6E1"/><circle cx="20" cy="20.452" r="19.5" stroke="#9CD6E1"/></svg>
